comment-quote-outline.svg

<svg fill="currentColor" viewBox="0 0 24 24"><path d="M9 22c-.6 0-1-.4-1-1v-3H4c-1.1 0-2-.9-2-2V4c0-1.1.9-2 2-2h16c1.1 0 2 .9 2 2v12c0 1.1-.9 2-2 2h-6.1l-3.7 3.7c-.2.2-.4.3-.7.3zm1-6v3.1l3.1-3.1H20V4H4v12zm6.3-10-1.4 3H17v4h-4V8.8L14.3 6zm-6 0L8.9 9H11v4H7V8.8L8.3 6z"/></svg>

<svg  viewBox="0 0 24 24" fill="currentColor"><path  d="M9 22C8.4 22 8 21.6 8 21V18H4C2.9 18 2 17.1 2 16V4C2 2.9 2.9 2 4 2H20C21.1 2 22 2.9 22 4V16C22 17.1 21.1 18 20 18H13.9L10.2 21.7C10 21.9 9.8 22 9.5 22H9M10 16V19.1L13.1 16H20V4H4V16H10M16.3 6L14.9 9H17V13H13V8.8L14.3 6H16.3M10.3 6L8.9 9H11V13H7V8.8L8.3 6H10.3Z"/></svg>
